X: 3
T: An Feochan
R: polka
M: 2/4
L: 1/8
K: Emin
|: E>F G/E/-E | B2 A>B | G/E/-E d2 | B/^c/d B/c/d | e>f d>f | e3 B | g>B f>B | e<B g>f | e<B BA | G>B F>B | E4 :|ee- ed/B/ | b/^a/b- b2 | ee- ed/B/ | d2- de/f/ | e2 dB | g>B f>B | e>f ed | B/^c/d- d>e | E/F/G- Ge |B (4c/B/A/G/ F>B | EE- E2 || B | EF G>B | E>^c d2 |]


Tune 5182	Setting 17450

